lut/Frontier_like.cube
TITLE "FrontierLUT"
LUT_3D_SIZE 9
0.9921569 0.9921569 0.9921569
0.3333333 0.6941177 0.9803922
0.0000000 0.3215686 0.5882353
0.0039216 0.2666667 0.4901961
0.0039216 0.2666667 0.4901961
0.0039216 0.0117647 0.1686275
0.0039216 0.0117647 0.1686275
0.0039216 0.0117647 0.1686275
0.0039216 0.0117647 0.1686275
0.8352941 0.8745098 0.9921569
0.0000000 0.1647059 0.5607843
0.0000000 0.3215686 0.5882353
0.0039216 0.2666667 0.4901961
0.0039216 0.0117647 0.1686275
0.0039216 0.0117647 0.1686275
0.0039216 0.0117647 0.1686275
0.0039216 0.0117647 0.1686275
0.0078431 0.0078431 0.1019608
0.1019608 0.0823529 0.4156863
0.1019608 0.0823529 0.4156863
0.0549020 0.0313726 0.4745098
0.0039216 0.0117647 0.1686275
0.0039216 0.0117647 0.1686275
0.0039216 0.0117647 0.1686275
0.0078431 0.0078431 0.1019608
0.0078431 0.0078431 0.1019608
0.0078431 0.0078431 0.1019608
0.1019608 0.0823529 0.4156863
0.0078431 0.0000000 0.2823530
0.0078431 0.0039216 0.2549020
0.0117647 0.0078431 0.1098039
0.0078431 0.0078431 0.1019608
0.0078431 0.0078431 0.1019608
0.0078431 0.0078431 0.1019608
0.0078431 0.0078431 0.1019608
0.0078431 0.0078431 0.1019608
0.0392157 0.0039216 0.3568628
0.0470588 0.0117647 0.3529412
0.0196078 0.0117647 0.1254902
0.0078431 0.0078431 0.1019608
0.0078431 0.0078431 0.1019608
0.0078431 0.0078431 0.1019608
0.0078431 0.0078431 0.1019608
0.0078431 0.0078431 0.1019608
0.0078431 0.0078431 0.1019608
0.0470588 0.0117647 0.3529412
0.0196078 0.0117647 0.1254902
0.0196078 0.0117647 0.1254902
0.0078431 0.0078431 0.1019608
0.0078431 0.0078431 0.1019608
0.0078431 0.0078431 0.1019608
0.0078431 0.0078431 0.1019608
0.0078431 0.0078431 0.0078431
0.0078431 0.0078431 0.0078431
0.0470588 0.0117647 0.3529412
0.0196078 0.0117647 0.1254902
0.0196078 0.0117647 0.1254902
0.0078431 0.0078431 0.1019608
0.0078431 0.0078431 0.1019608
0.0078431 0.0078431 0.0078431
0.0078431 0.0078431 0.0078431
0.0078431 0.0078431 0.0078431
0.0078431 0.0078431 0.0078431
0.0196078 0.0117647 0.1254902
0.0196078 0.0117647 0.1254902
0.0196078 0.0117647 0.1254902
0.0078431 0.0078431 0.1019608
0.0078431 0.0078431 0.0078431
0.0078431 0.0078431 0.0078431
0.0078431 0.0078431 0.0078431
0.0078431 0.0078431 0.0078431
0.0078431 0.0078431 0.0078431
0.0196078 0.0117647 0.1254902
0.0196078 0.0117647 0.1254902
0.0078431 0.0078431 0.0078431
0.0078431 0.0078431 0.0078431
0.0078431 0.0078431 0.0078431
0.0078431 0.0078431 0.0078431
0.0078431 0.0078431 0.0078431
0.0078431 0.0078431 0.0078431
0.0078431 0.0078431 0.0078431
0.9764706 0.9960784 0.9921569
0.3607843 0.6039216 0.8784314
0.0039216 0.2666667 0.4901961
0.0039216 0.2666667 0.4901961
0.0000000 0.1568628 0.3215686
0.0039216 0.0117647 0.1686275
0.0039216 0.0117647 0.1686275
0.0039216 0.0117647 0.1686275
0.0078431 0.0078431 0.1019608
0.5568628 0.5764706 0.5176471
0.4627451 0.4941176 0.6078432
0.0039216 0.3019608 0.4901961
0.0039216 0.0117647 0.1686275
0.0039216 0.0117647 0.1686275
0.0039216 0.0117647 0.1686275
0.0078431 0.0078431 0.1019608
0.0078431 0.0078431 0.1019608
0.0078431 0.0078431 0.1019608
0.2156863 0.3294118 0.3490196
0.0470588 0.0313726 0.2901961
0.0078431 0.0039216 0.2549020
0.0039216 0.0117647 0.1686275
0.0078431 0.0078431 0.1019608
0.0078431 0.0078431 0.1019608
0.0078431 0.0078431 0.1019608
0.0078431 0.0078431 0.1019608
0.0078431 0.0078431 0.1019608
0.0235294 0.0274510 0.1098039
0.0470588 0.0117647 0.3529412
0.0196078 0.0117647 0.1254902
0.0078431 0.0078431 0.1019608
0.0078431 0.0078431 0.1019608
0.0078431 0.0078431 0.1019608
0.0078431 0.0078431 0.1019608
0.0078431 0.0078431 0.1019608
0.0078431 0.0078431 0.0078431
0.3333333 0.3764706 0.5019608
0.0196078 0.0117647 0.1254902
0.0196078 0.0117647 0.1254902
0.0078431 0.0078431 0.1019608
0.0078431 0.0078431 0.1019608
0.0078431 0.0078431 0.1019608
0.0078431 0.0078431 0.0078431
0.0078431 0.0078431 0.0078431
0.0078431 0.0078431 0.0078431
0.0235294 0.0117647 0.1098039
0.0196078 0.0117647 0.1254902
0.0196078 0.0117647 0.1254902
0.0078431 0.0078431 0.1019608
0.0078431 0.0078431 0.0078431
0.0078431 0.0078431 0.0078431
0.0078431 0.0078431 0.0078431
0.0078431 0.0078431 0.0078431
0.0078431 0.0078431 0.0078431
0.0196078 0.0117647 0.1254902
0.0196078 0.0117647 0.1254902
0.0078431 0.0078431 0.0078431
0.0078431 0.0078431 0.0078431
0.0078431 0.0078431 0.0078431
0.0078431 0.0078431 0.0078431
0.0078431 0.0078431 0.0078431
0.0078431 0.0078431 0.0078431
0.0078431 0.0078431 0.0078431
0.0235294 0.0156863 0.0901961
0.0078431 0.0078431 0.0078431
0.0078431 0.0078431 0.0078431
0.0078431 0.0078431 0.0078431
0.0078431 0.0078431 0.0078431
0.0078431 0.0078431 0.0078431
0.0078431 0.0078431 0.0078431
0.0078431 0.0078431 0.0078431
0.0078431 0.0078431 0.0078431
0.0078431 0.0078431 0.0078431
0.0078431 0.0078431 0.0078431
0.0078431 0.0078431 0.0078431
0.0078431 0.0078431 0.0078431
0.0078431 0.0078431 0.0078431
0.0078431 0.0078431 0.0078431
0.0078431 0.0078431 0.0078431
0.0078431 0.0078431 0.0078431
0.0078431 0.0078431 0.0078431
0.6235294 0.5294118 0.3019608
0.5137255 0.5372549 0.4627451
0.1960784 0.2313726 0.2196078
0.0000000 0.1372549 0.2078431
0.0039216 0.0666667 0.1803922
0.0039216 0.0117647 0.1686275
0.0078431 0.0078431 0.1019608
0.0078431 0.0078431 0.1019608
0.0078431 0.0078431 0.1019608
0.0509804 0.0352941 0.0313726
0.1333333 0.0901961 0.0352941
0.0392157 0.0745098 0.1098039
0.0039216 0.0156863 0.0313726
0.0078431 0.0078431 0.1019608
0.0078431 0.0078431 0.1019608
0.0078431 0.0078431 0.1019608
0.0078431 0.0078431 0.0078431
0.0078431 0.0078431 0.0078431
0.1921569 0.1254902 0.0901961
0.0941176 0.0666667 0.0941176
0.0117647 0.0156863 0.0941176
0.0039216 0.0078431 0.1098039
0.0078431 0.0078431 0.1019608
0.0078431 0.0078431 0.1019608
0.0078431 0.0078431 0.0078431
0.0078431 0.0078431 0.0078431
0.0078431 0.0078431 0.0078431
0.0352941 0.0196078 0.0156863
0.1019608 0.0862745 0.1333333
0.0235294 0.0156863 0.0901961
0.0078431 0.0078431 0.0078431
0.0117647 0.0078431 0.0156863
0.0078431 0.0078431 0.0078431
0.0078431 0.0078431 0.0078431
0.0078431 0.0078431 0.0078431
0.0078431 0.0078431 0.0078431
0.0392157 0.0235294 0.0196078
0.0196078 0.0274510 0.0980392
0.0078431 0.0078431 0.0078431
0.0078431 0.0078431 0.0078431
0.0078431 0.0078431 0.0078431
0.0078431 0.0078431 0.0078431
0.0078431 0.0078431 0.0078431
0.0078431 0.0078431 0.0078431
0.0078431 0.0078431 0.0078431
0.0392157 0.0235294 0.0196078
0.0117647 0.0078431 0.0156863
0.0078431 0.0078431 0.0078431
0.0078431 0.0078431 0.0078431
0.0078431 0.0078431 0.0078431
0.0078431 0.0078431 0.0078431
0.0078431 0.0078431 0.0078431
0.0078431 0.0078431 0.0078431
0.0078431 0.0078431 0.0078431
0.0274510 0.0470588 0.0431373
0.0078431 0.0078431 0.0078431
0.0078431 0.0078431 0.0078431
0.0078431 0.0078431 0.0078431
0.0078431 0.0078431 0.0078431
0.0078431 0.0078431 0.0078431
0.0078431 0.0078431 0.0078431
0.0078431 0.0078431 0.0078431
0.0078431 0.0078431 0.0078431
0.0078431 0.0039216 0.0117647
0.0078431 0.0078431 0.0078431
0.0078431 0.0078431 0.0078431
0.0078431 0.0078431 0.0078431
0.0078431 0.0078431 0.0078431
0.0078431 0.0078431 0.0078431
0.0078431 0.0078431 0.0078431
0.0078431 0.0078431 0.0078431
0.0078431 0.0078431 0.0078431
0.0078431 0.0078431 0.0078431
0.0078431 0.0078431 0.0078431
0.0078431 0.0078431 0.0078431
0.0078431 0.0078431 0.0078431
0.0078431 0.0078431 0.0078431
0.0078431 0.0078431 0.0078431
0.0078431 0.0078431 0.0078431
0.0078431 0.0078431 0.0078431
0.0078431 0.0078431 0.0078431
0.3490196 0.2666667 0.0000000
0.2117647 0.1607843 0.0117647
0.1294118 0.1882353 0.0823529
0.0156863 0.0117647 0.0196078
0.0156863 0.0117647 0.0196078
0.0078431 0.0039216 0.0117647
0.0078431 0.0039216 0.0117647
0.0078431 0.0078431 0.0078431
0.0078431 0.0078431 0.0078431
0.2117647 0.1607843 0.0117647
0.2117647 0.1607843 0.0117647
0.0196078 0.0196078 0.0196078
0.0156863 0.0117647 0.0196078
0.0078431 0.0039216 0.0117647
0.0039216 0.0117647 0.0156863
0.0078431 0.0078431 0.0078431
0.0078431 0.0078431 0.0078431
0.0078431 0.0078431 0.0078431
0.1843137 0.1411765 0.0627451
0.0392157 0.0235294 0.0196078
0.0235294 0.0156863 0.0156863
0.0117647 0.0117647 0.0117647
0.0078431 0.0078431 0.0078431
0.0078431 0.0078431 0.0078431
0.0078431 0.0078431 0.0078431
0.0078431 0.0078431 0.0078431
0.0078431 0.0078431 0.0078431
0.0392157 0.0235294 0.0196078
0.0117647 0.0117647 0.0117647
0.0117647 0.0078431 0.0156863
0.0078431 0.0078431 0.0078431
0.0078431 0.0078431 0.0078431
0.0078431 0.0078431 0.0078431
0.0078431 0.0078431 0.0078431
0.0078431 0.0078431 0.0078431
0.0078431 0.0078431 0.0078431
0.0392157 0.0235294 0.0196078
0.0117647 0.0117647 0.0117647
0.0078431 0.0039216 0.0117647
0.0078431 0.0078431 0.0078431
0.0078431 0.0078431 0.0078431
0.0078431 0.0078431 0.0078431
0.0078431 0.0078431 0.0078431
0.0078431 0.0078431 0.0078431
0.0078431 0.0078431 0.0078431
0.0117647 0.0117647 0.0117647
0.0078431 0.0039216 0.0117647
0.0078431 0.0078431 0.0078431
0.0078431 0.0078431 0.0078431
0.0078431 0.0078431 0.0078431
0.0078431 0.0078431 0.0078431
0.0078431 0.0078431 0.0078431
0.0078431 0.0078431 0.0078431
0.0078431 0.0078431 0.0078431
0.0078431 0.0078431 0.0078431
0.0078431 0.0078431 0.0078431
0.0078431 0.0078431 0.0078431
0.0078431 0.0078431 0.0078431
0.0078431 0.0078431 0.0078431
0.0078431 0.0078431 0.0078431
0.0078431 0.0078431 0.0078431
0.0078431 0.0078431 0.0078431
0.0078431 0.0078431 0.0078431
0.0078431 0.0078431 0.0078431
0.0078431 0.0078431 0.0078431
0.0078431 0.0078431 0.0078431
0.0078431 0.0078431 0.0078431
0.0078431 0.0078431 0.0078431
0.0078431 0.0078431 0.0078431
0.0078431 0.0078431 0.0078431
0.0078431 0.0078431 0.0078431
0.0078431 0.0078431 0.0078431
0.0078431 0.0078431 0.0078431
0.0078431 0.0078431 0.0078431
0.0078431 0.0078431 0.0078431
0.0078431 0.0078431 0.0078431
0.0078431 0.0078431 0.0078431
0.0078431 0.0078431 0.0078431
0.0078431 0.0078431 0.0078431
0.0078431 0.0078431 0.0078431
0.0078431 0.0078431 0.0078431
0.2117647 0.1607843 0.0117647
0.2117647 0.1607843 0.0117647
0.0313726 0.0235294 0.0196078
0.0156863 0.0117647 0.0196078
0.0156863 0.0117647 0.0196078
0.0039216 0.0117647 0.0156863
0.0078431 0.0078431 0.0078431
0.0078431 0.0078431 0.0078431
0.0078431 0.0078431 0.0078431
0.2117647 0.1607843 0.0117647
0.0549020 0.0470588 0.0078431
0.0156863 0.0156863 0.0156863
0.0078431 0.0078431 0.0078431
0.0078431 0.0078431 0.0078431
0.0078431 0.0078431 0.0078431
0.0078431 0.0078431 0.0078431
0.0078431 0.0078431 0.0078431
0.0078431 0.0078431 0.0078431
0.0549020 0.0470588 0.0078431
0.0117647 0.0117647 0.0117647
0.0196078 0.0117647 0.0117647
0.0039216 0.0117647 0.0156863
0.0078431 0.0078431 0.0078431
0.0078431 0.0078431 0.0078431
0.0078431 0.0078431 0.0078431
0.0078431 0.0078431 0.0078431
0.0078431 0.0078431 0.0078431
0.0549020 0.0470588 0.0078431
0.0117647 0.0117647 0.0117647
0.0078431 0.0078431 0.0078431
0.0117647 0.0117647 0.0117647
0.0078431 0.0078431 0.0078431
0.0078431 0.0078431 0.0078431
0.0078431 0.0078431 0.0078431
0.0078431 0.0078431 0.0078431
0.0078431 0.0078431 0.0078431
0.0117647 0.0117647 0.0117647
0.0078431 0.0078431 0.0078431
0.0078431 0.0078431 0.0078431
0.0078431 0.0078431 0.0078431
0.0078431 0.0078431 0.0078431
0.0078431 0.0078431 0.0078431
0.0078431 0.0078431 0.0078431
0.0078431 0.0078431 0.0078431
0.0078431 0.0078431 0.0078431
0.0078431 0.0078431 0.0078431
0.0078431 0.0078431 0.0078431
0.0078431 0.0078431 0.0078431
0.0078431 0.0078431 0.0078431
0.0078431 0.0078431 0.0078431
0.0078431 0.0078431 0.0078431
0.0078431 0.0078431 0.0078431
0.0078431 0.0078431 0.0078431
0.0078431 0.0078431 0.0078431
0.0078431 0.0078431 0.0078431
0.0078431 0.0078431 0.0078431
0.0078431 0.0078431 0.0078431
0.0078431 0.0078431 0.0078431
0.0078431 0.0078431 0.0078431
0.0078431 0.0078431 0.0078431
0.0078431 0.0078431 0.0078431
0.0078431 0.0078431 0.0078431
0.0078431 0.0078431 0.0078431
0.0078431 0.0078431 0.0078431
0.0078431 0.0078431 0.0078431
0.0078431 0.0078431 0.0078431
0.0078431 0.0078431 0.0078431
0.0078431 0.0078431 0.0078431
0.0078431 0.0078431 0.0078431
0.0078431 0.0078431 0.0078431
0.0078431 0.0078431 0.0078431
0.0078431 0.0078431 0.0078431
0.0078431 0.0078431 0.0078431
0.0078431 0.0078431 0.0078431
0.0078431 0.0078431 0.0078431
0.0078431 0.0078431 0.0078431
0.0078431 0.0078431 0.0078431
0.0078431 0.0078431 0.0078431
0.0078431 0.0078431 0.0078431
0.0078431 0.0078431 0.0078431
0.0078431 0.0078431 0.0078431
0.2117647 0.1607843 0.0117647
0.0313726 0.0235294 0.0196078
0.0156863 0.0156863 0.0156863
0.0039216 0.0117647 0.0156863
0.0039216 0.0117647 0.0156863
0.0078431 0.0078431 0.0078431
0.0078431 0.0078431 0.0078431
0.0078431 0.0078431 0.0078431
0.0078431 0.0078431 0.0078431
0.0549020 0.0470588 0.0078431
0.0117647 0.0117647 0.0117647
0.0117647 0.0117647 0.0117647
0.0039216 0.0117647 0.0156863
0.0078431 0.0078431 0.0078431
0.0078431 0.0078431 0.0078431
0.0078431 0.0078431 0.0078431
0.0078431 0.0078431 0.0078431
0.0078431 0.0078431 0.0078431
0.0117647 0.0117647 0.0117647
0.0117647 0.0117647 0.0117647
0.0039216 0.0117647 0.0156863
0.0039216 0.0117647 0.0156863
0.0078431 0.0078431 0.0078431
0.0078431 0.0078431 0.0078431
0.0078431 0.0078431 0.0078431
0.0078431 0.0078431 0.0078431
0.0078431 0.0078431 0.0078431
0.0117647 0.0117647 0.0117647
0.0039216 0.0117647 0.0156863
0.0078431 0.0078431 0.0078431
0.0078431 0.0078431 0.0078431
0.0078431 0.0078431 0.0078431
0.0078431 0.0078431 0.0078431
0.0078431 0.0078431 0.0078431
0.0078431 0.0078431 0.0078431
0.0078431 0.0078431 0.0078431
0.0117647 0.0117647 0.0117647
0.0078431 0.0078431 0.0078431
0.0078431 0.0078431 0.0078431
0.0078431 0.0078431 0.0078431
0.0078431 0.0078431 0.0078431
0.0078431 0.0078431 0.0078431
0.0078431 0.0078431 0.0078431
0.0078431 0.0078431 0.0078431
0.0078431 0.0078431 0.0078431
0.0078431 0.0078431 0.0078431
0.0078431 0.0078431 0.0078431
0.0078431 0.0078431 0.0078431
0.0078431 0.0078431 0.0078431
0.0078431 0.0078431 0.0078431
0.0078431 0.0078431 0.0078431
0.0078431 0.0078431 0.0078431
0.0078431 0.0078431 0.0078431
0.0078431 0.0078431 0.0078431
0.0078431 0.0078431 0.0078431
0.0078431 0.0078431 0.0078431
0.0078431 0.0078431 0.0078431
0.0078431 0.0078431 0.0078431
0.0078431 0.0078431 0.0078431
0.0078431 0.0078431 0.0078431
0.0078431 0.0078431 0.0078431
0.0078431 0.0078431 0.0078431
0.0078431 0.0078431 0.0078431
0.0078431 0.0078431 0.0078431
0.0078431 0.0078431 0.0078431
0.0078431 0.0078431 0.0078431
0.0078431 0.0078431 0.0078431
0.0078431 0.0078431 0.0078431
0.0078431 0.0078431 0.0078431
0.0078431 0.0078431 0.0078431
0.0078431 0.0078431 0.0078431
0.0078431 0.0078431 0.0078431
0.0078431 0.0078431 0.0078431
0.0078431 0.0078431 0.0078431
0.0078431 0.0078431 0.0078431
0.0078431 0.0078431 0.0078431
0.0078431 0.0078431 0.0078431
0.0078431 0.0078431 0.0078431
0.0078431 0.0078431 0.0078431
0.0078431 0.0078431 0.0078431
0.0078431 0.0078431 0.0078431
0.0549020 0.0470588 0.0078431
0.0117647 0.0117647 0.0117647
0.0117647 0.0117647 0.0117647
0.0039216 0.0117647 0.0156863
0.0039216 0.0117647 0.0156863
0.0078431 0.0078431 0.0078431
0.0078431 0.0078431 0.0078431
0.0078431 0.0078431 0.0078431
0.0078431 0.0078431 0.0078431
0.0117647 0.0117647 0.0117647
0.0117647 0.0117647 0.0117647
0.0039216 0.0117647 0.0156863
0.0039216 0.0117647 0.0156863
0.0078431 0.0078431 0.0078431
0.0078431 0.0078431 0.0078431
0.0078431 0.0078431 0.0078431
0.0078431 0.0078431 0.0078431
0.0078431 0.0078431 0.0078431
0.0117647 0.0117647 0.0117647
0.0039216 0.0117647 0.0156863
0.0039216 0.0117647 0.0156863
0.0078431 0.0078431 0.0078431
0.0078431 0.0078431 0.0078431
0.0078431 0.0078431 0.0078431
0.0078431 0.0078431 0.0078431
0.0078431 0.0078431 0.0078431
0.0078431 0.0078431 0.0078431
0.0117647 0.0117647 0.0117647
0.0039216 0.0117647 0.0156863
0.0078431 0.0078431 0.0078431
0.0078431 0.0078431 0.0078431
0.0078431 0.0078431 0.0078431
0.0078431 0.0078431 0.0078431
0.0078431 0.0078431 0.0078431
0.0078431 0.0078431 0.0078431
0.0078431 0.0078431 0.0078431
0.0078431 0.0078431 0.0078431
0.0078431 0.0078431 0.0078431
0.0078431 0.0078431 0.0078431
0.0078431 0.0078431 0.0078431
0.0078431 0.0078431 0.0078431
0.0078431 0.0078431 0.0078431
0.0078431 0.0078431 0.0078431
0.0078431 0.0078431 0.0078431
0.0078431 0.0078431 0.0078431
0.0078431 0.0078431 0.0078431
0.0078431 0.0078431 0.0078431
0.0078431 0.0078431 0.0078431
0.0078431 0.0078431 0.0078431
0.0078431 0.0078431 0.0078431
0.0078431 0.0078431 0.0078431
0.0078431 0.0078431 0.0078431
0.0078431 0.0078431 0.0078431
0.0078431 0.0078431 0.0078431
0.0078431 0.0078431 0.0078431
0.0078431 0.0078431 0.0078431
0.0078431 0.0078431 0.0078431
0.0078431 0.0078431 0.0078431
0.0078431 0.0078431 0.0078431
0.0078431 0.0078431 0.0078431
0.0078431 0.0078431 0.0078431
0.0078431 0.0078431 0.0078431
0.0078431 0.0078431 0.0078431
0.0078431 0.0078431 0.0078431
0.0078431 0.0078431 0.0078431
0.0078431 0.0078431 0.0078431
0.0078431 0.0078431 0.0078431
0.0078431 0.0078431 0.0078431
0.0078431 0.0078431 0.0078431
0.0078431 0.0078431 0.0078431
0.0078431 0.0078431 0.0078431
0.0078431 0.0078431 0.0078431
0.0078431 0.0078431 0.0078431
0.0078431 0.0078431 0.0078431
0.0078431 0.0078431 0.0078431
0.0078431 0.0078431 0.0078431
0.0078431 0.0078431 0.0078431
0.0078431 0.0078431 0.0078431
0.0078431 0.0078431 0.0078431
0.0078431 0.0078431 0.0078431
0.0078431 0.0078431 0.0078431
0.0117647 0.0117647 0.0117647
0.0117647 0.0117647 0.0117647
0.0039216 0.0117647 0.0156863
0.0039216 0.0117647 0.0156863
0.0039216 0.0117647 0.0156863
0.0078431 0.0078431 0.0078431
0.0078431 0.0078431 0.0078431
0.0078431 0.0078431 0.0078431
0.0078431 0.0078431 0.0078431
0.0117647 0.0117647 0.0117647
0.0039216 0.0117647 0.0156863
0.0039216 0.0117647 0.0156863
0.0039216 0.0117647 0.0156863
0.0078431 0.0078431 0.0078431
0.0078431 0.0078431 0.0078431
0.0078431 0.0078431 0.0078431
0.0078431 0.0078431 0.0078431
0.0078431 0.0078431 0.0078431
0.0117647 0.0117647 0.0117647
0.0039216 0.0117647 0.0156863
0.0039216 0.0117647 0.0156863
0.0078431 0.0078431 0.0078431
0.0078431 0.0078431 0.0078431
0.0078431 0.0078431 0.0078431
0.0078431 0.0078431 0.0078431
0.0078431 0.0078431 0.0078431
0.0078431 0.0078431 0.0078431
0.0039216 0.0117647 0.0156863
0.0039216 0.0117647 0.0156863
0.0078431 0.0078431 0.0078431
0.0078431 0.0078431 0.0078431
0.0078431 0.0078431 0.0078431
0.0078431 0.0078431 0.0078431
0.0078431 0.0078431 0.0078431
0.0078431 0.0078431 0.0078431
0.0078431 0.0078431 0.0078431
0.0078431 0.0078431 0.0078431
0.0078431 0.0078431 0.0078431
0.0078431 0.0078431 0.0078431
0.0078431 0.0078431 0.0078431
0.0078431 0.0078431 0.0078431
0.0078431 0.0078431 0.0078431
0.0078431 0.0078431 0.0078431
0.0078431 0.0078431 0.0078431
0.0078431 0.0078431 0.0078431
0.0078431 0.0078431 0.0078431
0.0078431 0.0078431 0.0078431
0.0078431 0.0078431 0.0078431
0.0078431 0.0078431 0.0078431
0.0078431 0.0078431 0.0078431
0.0078431 0.0078431 0.0078431
0.0078431 0.0078431 0.0078431
0.0078431 0.0078431 0.0078431
0.0078431 0.0078431 0.0078431
0.0078431 0.0078431 0.0078431
0.0078431 0.0078431 0.0078431
0.0078431 0.0078431 0.0078431
0.0078431 0.0078431 0.0078431
0.0078431 0.0078431 0.0078431
0.0078431 0.0078431 0.0078431
0.0078431 0.0078431 0.0078431
0.0078431 0.0078431 0.0078431
0.0078431 0.0078431 0.0078431
0.0078431 0.0078431 0.0078431
0.0078431 0.0078431 0.0078431
0.0078431 0.0078431 0.0078431
0.0078431 0.0078431 0.0078431
0.0078431 0.0078431 0.0078431
0.0078431 0.0078431 0.0078431
0.0078431 0.0078431 0.0078431
0.0078431 0.0078431 0.0078431
0.0078431 0.0078431 0.0078431
0.0078431 0.0078431 0.0078431
0.0078431 0.0078431 0.0078431
0.0078431 0.0078431 0.0078431
0.0078431 0.0078431 0.0078431
0.0078431 0.0078431 0.0078431
0.0078431 0.0078431 0.0078431
0.0078431 0.0078431 0.0078431
0.0078431 0.0078431 0.0078431
0.0078431 0.0078431 0.0078431
0.0117647 0.0117647 0.0117647
0.0039216 0.0117647 0.0156863
0.0039216 0.0117647 0.0156863
0.0039216 0.0117647 0.0156863
0.0078431 0.0078431 0.0078431
0.0078431 0.0078431 0.0078431
0.0078431 0.0078431 0.0078431
0.0078431 0.0078431 0.0078431
0.0078431 0.0078431 0.0078431
0.0117647 0.0117647 0.0117647
0.0039216 0.0117647 0.0156863
0.0039216 0.0117647 0.0156863
0.0039216 0.0117647 0.0156863
0.0078431 0.0078431 0.0078431
0.0078431 0.0078431 0.0078431
0.0078431 0.0078431 0.0078431
0.0078431 0.0078431 0.0078431
0.0078431 0.0078431 0.0078431
0.0039216 0.0117647 0.0156863
0.0039216 0.0117647 0.0156863
0.0039216 0.0117647 0.0156863
0.0078431 0.0078431 0.0078431
0.0078431 0.0078431 0.0078431
0.0078431 0.0078431 0.0078431
0.0078431 0.0078431 0.0078431
0.0078431 0.0078431 0.0078431
0.0078431 0.0078431 0.0078431
0.0039216 0.0117647 0.0156863
0.0078431 0.0078431 0.0078431
0.0078431 0.0078431 0.0078431
0.0078431 0.0078431 0.0078431
0.0078431 0.0078431 0.0078431
0.0078431 0.0078431 0.0078431
0.0078431 0.0078431 0.0078431
0.0078431 0.0078431 0.0078431
0.0078431 0.0078431 0.0078431
0.0078431 0.0078431 0.0078431
0.0078431 0.0078431 0.0078431
0.0078431 0.0078431 0.0078431
0.0078431 0.0078431 0.0078431
0.0078431 0.0078431 0.0078431
0.0078431 0.0078431 0.0078431
0.0078431 0.0078431 0.0078431
0.0078431 0.0078431 0.0078431
0.0078431 0.0078431 0.0078431
0.0078431 0.0078431 0.0078431
0.0078431 0.0078431 0.0078431
0.0078431 0.0078431 0.0078431
0.0078431 0.0078431 0.0078431
0.0078431 0.0078431 0.0078431
0.0078431 0.0078431 0.0078431
0.0078431 0.0078431 0.0078431
0.0078431 0.0078431 0.0078431
0.0078431 0.0078431 0.0078431
0.0078431 0.0078431 0.0078431
0.0078431 0.0078431 0.0078431
0.0078431 0.0078431 0.0078431
0.0078431 0.0078431 0.0078431
0.0078431 0.0078431 0.0078431
0.0078431 0.0078431 0.0078431
0.0078431 0.0078431 0.0078431
0.0078431 0.0078431 0.0078431
0.0078431 0.0078431 0.0078431
0.0078431 0.0078431 0.0078431
0.0078431 0.0078431 0.0078431
0.0078431 0.0078431 0.0078431
0.0078431 0.0078431 0.0078431
0.0078431 0.0078431 0.0078431
0.0078431 0.0078431 0.0078431
0.0078431 0.0078431 0.0078431
0.0078431 0.0078431 0.0078431
0.0078431 0.0078431 0.0078431
0.0078431 0.0078431 0.0078431
0.0078431 0.0078431 0.0078431
0.0078431 0.0078431 0.0078431
0.0078431 0.0078431 0.0078431
0.0078431 0.0078431 0.0078431
0.0078431 0.0078431 0.0078431
0.0078431 0.0078431 0.0078431
0.0078431 0.0078431 0.0078431
0.0078431 0.0078431 0.0078431
