lut/Frontier_like.cube
TITLE "FrontierLUT"
LUT_3D_SIZE 33
0.9921569 0.9921569 0.9921569
0.6588235 0.7450981 1.0000000
0.4666667 0.6352941 0.8980392
0.4666667 0.6352941 0.8980392
0.3333333 0.6941177 0.9803922
0.1019608 0.4431373 0.7803922
0.1019608 0.4431373 0.7803922
0.0000000 0.1647059 0.5607843
0.0000000 0.3215686 0.5882353
0.0000000 0.3215686 0.5882353
0.0039216 0.2666667 0.4901961
0.0039216 0.2666667 0.4901961
0.0039216 0.2666667 0.4901961
0.0039216 0.2666667 0.4901961
0.0039216 0.2666667 0.4901961
0.0039216 0.2666667 0.4901961
0.0039216 0.2666667 0.4901961
0.0039216 0.2666667 0.4901961
0.0039216 0.0117647 0.1686275
0.0039216 0.0117647 0.1686275
0.0039216 0.0117647 0.1686275
0.0039216 0.0117647 0.1686275
0.0039216 0.0117647 0.1686275
0.0039216 0.0117647 0.1686275
0.0039216 0.0117647 0.1686275
0.0039216 0.0117647 0.1686275
0.0039216 0.0117647 0.1686275
0.0039216 0.0117647 0.1686275
0.0039216 0.0117647 0.1686275
0.0039216 0.0117647 0.1686275
0.0039216 0.0117647 0.1686275
0.0039216 0.0117647 0.1686275
0.0039216 0.0117647 0.1686275
0.6000000 0.7411765 0.9764706
0.5882353 0.6509804 0.9215686
0.4666667 0.6352941 0.8980392
0.9921569 0.9921569 0.9921569
1.0000000 0.9882353 0.9921569
0.1019608 0.4431373 0.7803922
0.0000000 0.1647059 0.5607843
0.0000000 0.1647059 0.5607843
0.0000000 0.3215686 0.5882353
0.0000000 0.3215686 0.5882353
0.0039216 0.2666667 0.4901961
0.0039216 0.2666667 0.4901961
0.0039216 0.2666667 0.4901961
0.0039216 0.2666667 0.4901961
0.0039216 0.2666667 0.4901961
0.0039216 0.2666667 0.4901961
0.0039216 0.2666667 0.4901961
0.0039216 0.0117647 0.1686275
0.0039216 0.0117647 0.1686275
0.0039216 0.0117647 0.1686275
0.0039216 0.0117647 0.1686275
0.0039216 0.0117647 0.1686275
0.0039216 0.0117647 0.1686275
0.0039216 0.0117647 0.1686275
0.0039216 0.0117647 0.1686275
0.0039216 0.0117647 0.1686275
0.0039216 0.0117647 0.1686275
0.0039216 0.0117647 0.1686275
0.0039216 0.0117647 0.1686275
0.0039216 0.0117647 0.1686275
0.0039216 0.0117647 0.1686275
0.0039216 0.0117647 0.1686275
0.0039216 0.0117647 0.1686275
0.9921569 0.9921569 0.9921569
0.4549020 0.5294118 0.7960784
0.9921569 0.9921569 0.9921569
1.0000000 0.9882353 0.9921569
1.0000000 0.9882353 0.9921569
0.0000000 0.1647059 0.5607843
0.0000000 0.1647059 0.5607843
0.0000000 0.1647059 0.5607843
0.0000000 0.3215686 0.5882353
0.0000000 0.3215686 0.5882353
0.0039216 0.2666667 0.4901961
0.0039216 0.2666667 0.4901961
0.0039216 0.2666667 0.4901961
0.0039216 0.2666667 0.4901961
0.0039216 0.2666667 0.4901961
0.0039216 0.2666667 0.4901961
0.0039216 0.0117647 0.1686275
0.0039216 0.0117647 0.1686275
0.0039216 0.0117647 0.1686275
0.0039216 0.0117647 0.1686275
0.0039216 0.0117647 0.1686275
0.0039216 0.0117647 0.1686275
0.0039216 0.0117647 0.1686275
0.0039216 0.0117647 0.1686275
0.0039216 0.0117647 0.1686275
0.0039216 0.0117647 0.1686275
0.0039216 0.0117647 0.1686275
0.0039216 0.0117647 0.1686275
0.0039216 0.0117647 0.1686275
0.0039216 0.0117647 0.1686275
0.0039216 0.0117647 0.1686275
0.0039216 0.0117647 0.1686275
0.0039216 0.0117647 0.1686275
0.4549020 0.5294118 0.7960784
0.1372549 0.1764706 0.3098039
1.0000000 0.9882353 0.9921569
1.0000000 0.9882353 0.9921569
0.0000000 0.1647059 0.5607843
0.0000000 0.1647059 0.5607843
0.0000000 0.1647059 0.5607843
0.0000000 0.1647059 0.5607843
0.0000000 0.3215686 0.5882353
0.0000000 0.3215686 0.5882353
0.0039216 0.2666667 0.4901961
0.0039216 0.2666667 0.4901961
0.0039216 0.2666667 0.4901961
0.0039216 0.2666667 0.4901961
0.0039216 0.2666667 0.4901961
0.0039216 0.0117647 0.1686275
0.0039216 0.0117647 0.1686275
0.0039216 0.0117647 0.1686275
0.0039216 0.0117647 0.1686275
0.0039216 0.0117647 0.1686275
0.0039216 0.0117647 0.1686275
0.0039216 0.0117647 0.1686275
0.0039216 0.0117647 0.1686275
0.0039216 0.0117647 0.1686275
0.0039216 0.0117647 0.1686275
0.0039216 0.0117647 0.1686275
0.0039216 0.0117647 0.1686275
0.0039216 0.0117647 0.1686275
0.0039216 0.0117647 0.1686275
0.0039216 0.0117647 0.1686275
0.0039216 0.0117647 0.1686275
0.0078431 0.0078431 0.1019608
0.0078431 0.0078431 0.1019608
0.8352941 0.8745098 0.9921569
1.0000000 0.9882353 0.9921569
1.0000000 0.9882353 0.9921569
0.9372549 0.9647059 1.0000000
0.0000000 0.1647059 0.5607843
0.0000000 0.1647059 0.5607843
0.0000000 0.1647059 0.5607843
0.0000000 0.3215686 0.5882353
0.0000000 0.3215686 0.5882353
0.0000000 0.3215686 0.5882353
0.0039216 0.2666667 0.4901961
0.0039216 0.2666667 0.4901961
0.0039216 0.2666667 0.4901961
0.0039216 0.0117647 0.1686275
0.0039216 0.0117647 0.1686275
0.0039216 0.0117647 0.1686275
0.0039216 0.0117647 0.1686275
0.0039216 0.0117647 0.1686275
0.0039216 0.0117647 0.1686275
0.0039216 0.0117647 0.1686275
0.0039216 0.0117647 0.1686275
0.0039216 0.0117647 0.1686275
0.0039216 0.0117647 0.1686275
0.0039216 0.0117647 0.1686275
0.0039216 0.0117647 0.1686275
0.0039216 0.0117647 0.1686275
0.0039216 0.0117647 0.1686275
0.0039216 0.0117647 0.1686275
0.0039216 0.0117647 0.1686275
0.0078431 0.0078431 0.1019608
0.0078431 0.0078431 0.1019608
0.0078431 0.0078431 0.1019608
0.0078431 0.0078431 0.1019608
0.7960784 0.8745098 1.0000000
1.0000000 0.9882353 0.9921569
0.9372549 0.9647059 1.0000000
0.0000000 0.1647059 0.5607843
0.0000000 0.1647059 0.5607843
0.0000000 0.1647059 0.5607843
0.0000000 0.1647059 0.5607843
0.0000000 0.3215686 0.5882353
0.0000000 0.3215686 0.5882353
0.0000000 0.3215686 0.5882353
0.0039216 0.2666667 0.4901961
0.0039216 0.2666667 0.4901961
0.0039216 0.0117647 0.1686275
0.0039216 0.0117647 0.1686275
0.0039216 0.0117647 0.1686275
0.0039216 0.0117647 0.1686275
0.0039216 0.0117647 0.1686275
0.0039216 0.0117647 0.1686275
0.0039216 0.0117647 0.1686275
0.0039216 0.0117647 0.1686275
0.0039216 0.0117647 0.1686275
0.0039216 0.0117647 0.1686275
0.0039216 0.0117647 0.1686275
0.0039216 0.0117647 0.1686275
0.0039216 0.0117647 0.1686275
0.0039216 0.0117647 0.1686275
0.0039216 0.0117647 0.1686275
0.0078431 0.0078431 0.1019608
0.0078431 0.0078431 0.1019608
0.0078431 0.0078431 0.1019608
0.0078431 0.0078431 0.1019608
0.0078431 0.0078431 0.1019608
0.0078431 0.0078431 0.1019608
0.8470588 0.9372549 1.0000000
0.9372549 0.9647059 1.0000000
0.1019608 0.0823529 0.4156863
0.1019608 0.0823529 0.4156863
0.0000000 0.1647059 0.5607843
0.0000000 0.1647059 0.5607843
0.0117647 0.2549020 0.6549020
0.0000000 0.3215686 0.5882353
0.0000000 0.3215686 0.5882353
0.0000000 0.2980392 0.5686275
0.0000000 0.2980392 0.5686275
0.0039216 0.0117647 0.1686275
0.0039216 0.0117647 0.1686275
0.0039216 0.0117647 0.1686275
0.0039216 0.0117647 0.1686275
0.0039216 0.0117647 0.1686275
0.0039216 0.0117647 0.1686275
0.0039216 0.0117647 0.1686275
0.0039216 0.0117647 0.1686275
0.0039216 0.0117647 0.1686275
0.0039216 0.0117647 0.1686275
0.0039216 0.0117647 0.1686275
0.0039216 0.0117647 0.1686275
0.0039216 0.0117647 0.1686275
0.0039216 0.0117647 0.1686275
0.0078431 0.0078431 0.1019608
0.0078431 0.0078431 0.1019608
0.0078431 0.0078431 0.1019608
0.0078431 0.0078431 0.1019608
0.0078431 0.0078431 0.1019608
0.0078431 0.0078431 0.1019608
0.0078431 0.0078431 0.1019608
0.0078431 0.0078431 0.1019608
0.6509804 0.7333333 0.9725490
0.1019608 0.0823529 0.4156863
0.1019608 0.0823529 0.4156863
0.1019608 0.0823529 0.4156863
0.1019608 0.0823529 0.4156863
0.0549020 0.0313726 0.4745098
0.0549020 0.0313726 0.4745098
0.0549020 0.0313726 0.4745098
0.0549020 0.0313726 0.4745098
0.0078431 0.0156863 0.2039216
0.0039216 0.0117647 0.1686275
0.0039216 0.0117647 0.1686275
0.0039216 0.0117647 0.1686275
0.0039216 0.0117647 0.1686275
0.0039216 0.0117647 0.1686275
0.0039216 0.0117647 0.1686275
0.0039216 0.0117647 0.1686275
0.0039216 0.0117647 0.1686275
0.0039216 0.0117647 0.1686275
0.0039216 0.0117647 0.1686275
0.0039216 0.0117647 0.1686275
0.0039216 0.0117647 0.1686275
0.0039216 0.0117647 0.1686275
0.0078431 0.0078431 0.1019608
0.0078431 0.0078431 0.1019608
0.0078431 0.0078431 0.1019608
0.0078431 0.0078431 0.1019608
0.0078431 0.0078431 0.1019608
0.0078431 0.0078431 0.1019608
0.0078431 0.0078431 0.1019608
0.0078431 0.0078431 0.1019608
0.0078431 0.0078431 0.1019608
0.0078431 0.0078431 0.1019608
0.1019608 0.0823529 0.4156863
0.1019608 0.0823529 0.4156863
0.1019608 0.0823529 0.4156863
0.1019608 0.0823529 0.4156863
0.1019608 0.0823529 0.4156863
0.0549020 0.0313726 0.4745098
0.0549020 0.0313726 0.4745098
0.0549020 0.0313726 0.4745098
0.0549020 0.0313726 0.4745098
0.0078431 0.0156863 0.2039216
0.0039216 0.0117647 0.1686275
0.0039216 0.0117647 0.1686275
0.0039216 0.0117647 0.1686275
0.0039216 0.0117647 0.1686275
0.0039216 0.0117647 0.1686275
0.0039216 0.0117647 0.1686275
0.0039216 0.0117647 0.1686275
0.0039216 0.0117647 0.1686275
0.0039216 0.0117647 0.1686275
0.0039216 0.0117647 0.1686275
0.0039216 0.0117647 0.1686275
0.0078431 0.0078431 0.1019608
0.0078431 0.0078431 0.1019608
0.0078431 0.0078431 0.1019608
0.0078431 0.0078431 0.1019608
0.0078431 0.0078431 0.1019608
0.0078431 0.0078431 0.1019608
0.0078431 0.0078431 0.1019608
0.0078431 0.0078431 0.1019608
0.0078431 0.0078431 0.1019608
0.0078431 0.0078431 0.1019608
0.0078431 0.0078431 0.1019608
0.0078431 0.0078431 0.1019608
0.1019608 0.0823529 0.4156863
0.1019608 0.0823529 0.4156863
0.1019608 0.0823529 0.4156863
0.1019608 0.0823529 0.4156863
0.0549020 0.0313726 0.4745098
0.0549020 0.0313726 0.4745098
0.0078431 0.0000000 0.2823530
0.0078431 0.0000000 0.2823530
0.2274510 0.3411765 0.5803922
0.0078431 0.0156863 0.2039216
0.0039216 0.0117647 0.1686275
0.0039216 0.0117647 0.1686275
0.0039216 0.0117647 0.1686275
0.0039216 0.0117647 0.1686275
0.0039216 0.0117647 0.1686275
0.0039216 0.0117647 0.1686275
0.0039216 0.0117647 0.1686275
0.0039216 0.0117647 0.1686275
0.0039216 0.0117647 0.1686275
0.0078431 0.0078431 0.1019608
0.0078431 0.0078431 0.1019608
0.0078431 0.0078431 0.1019608
0.0078431 0.0078431 0.1019608
0.0078431 0.0078431 0.1019608
0.0078431 0.0078431 0.1019608
0.0078431 0.0078431 0.1019608
0.0078431 0.0078431 0.1019608
0.0078431 0.0078431 0.1019608
0.0078431 0.0078431 0.1019608
0.0078431 0.0078431 0.1019608
0.0078431 0.0078431 0.1019608
0.0078431 0.0078431 0.1019608
0.0078431 0.0078431 0.1019608
0.1019608 0.0823529 0.4156863
0.1019608 0.0823529 0.4156863
0.1019608 0.0823529 0.4156863
0.0392157 0.0039216 0.3568628
0.0392157 0.0039216 0.3568628
0.0078431 0.0000000 0.2823530
0.0078431 0.0000000 0.2823530
0.0078431 0.0000000 0.2823530
0.0078431 0.0156863 0.2039216
0.0078431 0.0156863 0.2039216
0.0039216 0.0117647 0.1686275
0.0039216 0.0117647 0.1686275
0.0039216 0.0117647 0.1686275
0.0039216 0.0117647 0.1686275
0.0039216 0.0117647 0.1686275
0.0039216 0.0117647 0.1686275
0.0039216 0.0117647 0.1686275
0.0078431 0.0078431 0.1019608
0.0078431 0.0078431 0.1019608
0.0078431 0.0078431 0.1019608
0.0078431 0.0078431 0.1019608
0.0078431 0.0078431 0.1019608
0.0078431 0.0078431 0.1019608
0.0078431 0.0078431 0.1019608
0.0078431 0.0078431 0.1019608
0.0078431 0.0078431 0.1019608
0.0078431 0.0078431 0.1019608
0.0078431 0.0078431 0.1019608
0.0078431 0.0078431 0.1019608
0.0078431 0.0078431 0.1019608
0.0078431 0.0078431 0.1019608
0.0078431 0.0078431 0.1019608
0.0078431 0.0078431 0.1019608
0.1019608 0.0823529 0.4156863
0.1019608 0.0823529 0.4156863
0.0392157 0.0039216 0.3568628
0.0392157 0.0039216 0.3568628
0.0392157 0.0039216 0.3568628
0.0078431 0.0000000 0.2823530
0.0078431 0.0000000 0.2823530
0.0078431 0.0000000 0.2823530
0.0078431 0.0156863 0.2039216
0.0039216 0.0117647 0.1686275
0.0039216 0.0117647 0.1686275
0.0039216 0.0117647 0.1686275
0.0039216 0.0117647 0.1686275
0.0039216 0.0117647 0.1686275
0.0039216 0.0117647 0.1686275
0.0078431 0.0078431 0.1019608
0.0078431 0.0078431 0.1019608
0.0078431 0.0078431 0.1019608
0.0078431 0.0078431 0.1019608
0.0078431 0.0078431 0.1019608
0.0078431 0.0078431 0.1019608
0.0078431 0.0078431 0.1019608
0.0078431 0.0078431 0.1019608
0.0078431 0.0078431 0.1019608
0.0078431 0.0078431 0.1019608
0.0078431 0.0078431 0.1019608
0.0078431 0.0078431 0.1019608
0.0078431 0.0078431 0.1019608
0.0078431 0.0078431 0.1019608
0.0078431 0.0078431 0.1019608
0.0078431 0.0078431 0.1019608
0.0078431 0.0078431 0.1019608
0.0078431 0.0078431 0.1019608
0.1019608 0.0823529 0.4156863
0.1019608 0.0823529 0.4156863
0.0392157 0.0039216 0.3568628
0.0392157 0.0039216 0.3568628
0.0078431 0.0000000 0.2823530
0.0078431 0.0000000 0.2823530
0.0078431 0.0000000 0.2823530
0.0078431 0.0000000 0.2823530
0.0078431 0.0039216 0.2549020
0.0000000 0.0392157 0.2117647
0.0000000 0.0392157 0.2117647
0.0117647 0.0078431 0.1098039
0.0117647 0.0078431 0.1098039
0.0078431 0.0078431 0.1019608
0.0078431 0.0078431 0.1019608
0.0078431 0.0078431 0.1019608
0.0078431 0.0078431 0.1019608
0.0078431 0.0078431 0.1019608
0.0078431 0.0078431 0.1019608
0.0078431 0.0078431 0.1019608
0.0078431 0.0078431 0.1019608
0.0078431 0.0078431 0.1019608
0.0078431 0.0078431 0.1019608
0.0078431 0.0078431 0.1019608
0.0078431 0.0078431 0.1019608
0.0078431 0.0078431 0.1019608
0.0078431 0.0078431 0.1019608
0.0078431 0.0078431 0.1019608
0.0078431 0.0078431 0.1019608
0.0078431 0.0078431 0.1019608
0.0078431 0.0078431 0.1019608
0.0078431 0.0078431 0.1019608
0.0078431 0.0078431 0.1019608
0.1019608 0.0823529 0.4156863
0.0392157 0.0039216 0.3568628
0.0392157 0.0039216 0.3568628
0.0392157 0.0039216 0.3568628
0.0078431 0.0000000 0.2823530
0.0078431 0.0000000 0.2823530
0.0078431 0.0000000 0.2823530
0.0470588 0.0117647 0.3529412
0.0117647 0.0078431 0.1725490
0.0000000 0.0392157 0.2117647
0.0000000 0.0392157 0.2117647
0.0117647 0.0078431 0.1098039
0.0078431 0.0078431 0.1019608
0.0078431 0.0078431 0.1019608
0.0078431 0.0078431 0.1019608
0.0078431 0.0078431 0.1019608
0.0078431 0.0078431 0.1019608
0.0078431 0.0078431 0.1019608
0.0078431 0.0078431 0.1019608
0.0078431 0.0078431 0.1019608
0.0078431 0.0078431 0.1019608
0.0078431 0.0078431 0.1019608
0.0078431 0.0078431 0.1019608
0.0078431 0.0078431 0.1019608
0.0078431 0.0078431 0.1019608
0.0078431 0.0078431 0.1019608
0.0078431 0.0078431 0.1019608
0.0078431 0.0078431 0.1019608
0.0078431 0.0078431 0.1019608
0.0078431 0.0078431 0.1019608
0.0078431 0.0078431 0.1019608
0.0078431 0.0078431 0.1019608
0.0078431 0.0078431 0.1019608
0.0392157 0.0039216 0.3568628
0.0392157 0.0039216 0.3568628
0.0392157 0.0039216 0.3568628
0.0078431 0.0000000 0.2823530
0.0078431 0.0000000 0.2823530
0.0470588 0.0117647 0.3529412
0.0470588 0.0117647 0.3529412
0.0470588 0.0117647 0.3529412
0.0117647 0.0078431 0.1725490
0.0000000 0.0392157 0.2117647
0.0000000 0.0392157 0.2117647
0.0078431 0.0078431 0.1019608
0.0078431 0.0078431 0.1019608
0.0078431 0.0078431 0.1019608
0.0078431 0.0078431 0.1019608
0.0078431 0.0078431 0.1019608
0.0078431 0.0078431 0.1019608
0.0078431 0.0078431 0.1019608
0.0078431 0.0078431 0.1019608
0.0078431 0.0078431 0.1019608
0.0078431 0.0078431 0.1019608
0.0078431 0.0078431 0.1019608
0.0078431 0.0078431 0.1019608
0.0078431 0.0078431 0.1019608
0.0078431 0.0078431 0.1019608
0.0078431 0.0078431 0.1019608
0.0078431 0.0078431 0.1019608
0.0078431 0.0078431 0.1019608
0.0078431 0.0078431 0.1019608
0.0078431 0.0078431 0.1019608
0.0078431 0.0078431 0.1019608
0.0078431 0.0078431 0.1019608
0.0078431 0.0078431 0.1019608
0.0392157 0.0039216 0.3568628
0.0392157 0.0039216 0.3568628
0.0392157 0.0039216 0.3568628
0.0078431 0.0000000 0.2823530
0.0470588 0.0117647 0.3529412
0.0470588 0.0117647 0.3529412
0.0470588 0.0117647 0.3529412
0.0117647 0.0078431 0.1725490
0.0196078 0.0117647 0.1254902
0.0000000 0.0392157 0.2117647
0.0078431 0.0078431 0.1019608
0.0078431 0.0078431 0.1019608
0.0078431 0.0078431 0.1019608
0.0078431 0.0078431 0.1019608
0.0078431 0.0078431 0.1019608
0.0078431 0.0078431 0.1019608
0.0078431 0.0078431 0.1019608
0.0078431 0.0078431 0.1019608
0.0078431 0.0078431 0.1019608
0.0078431 0.0078431 0.1019608
0.0078431 0.0078431 0.1019608
0.0078431 0.0078431 0.1019608
0.0078431 0.0078431 0.1019608
0.0078431 0.0078431 0.1019608
0.0078431 0.0078431 0.1019608
0.0078431 0.0078431 0.1019608
0.0078431 0.0078431 0.1019608
0.0078431 0.0078431 0.1019608
0.0078431 0.0078431 0.1019608
0.0078431 0.0078431 0.1019608
0.0078431 0.0078431 0.1019608
0.0078431 0.0078431 0.1019608
0.0078431 0.0078431 0.1019608
0.0392157 0.0039216 0.3568628
0.0392157 0.0039216 0.3568628
0.0470588 0.0117647 0.3529412
0.0470588 0.0117647 0.3529412
0.0470588 0.0117647 0.3529412
0.0470588 0.0117647 0.3529412
0.0470588 0.0117647 0.3529412
0.0196078 0.0117647 0.1254902
0.0196078 0.0117647 0.1254902
0.0000000 0.0392157 0.2117647
0.0078431 0.0078431 0.1019608
0.0078431 0.0078431 0.1019608
0.0078431 0.0078431 0.1019608
0.0078431 0.0078431 0.1019608
0.0078431 0.0078431 0.1019608
0.0078431 0.0078431 0.1019608
0.0078431 0.0078431 0.1019608
0.0078431 0.0078431 0.1019608
0.0078431 0.0078431 0.1019608
0.0078431 0.0078431 0.1019608
0.0078431 0.0078431 0.1019608
0.0078431 0.0078431 0.1019608
0.0078431 0.0078431 0.1019608
0.0078431 0.0078431 0.1019608
0.0078431 0.0078431 0.1019608
0.0078431 0.0078431 0.1019608
0.0078431 0.0078431 0.1019608
0.0078431 0.0078431 0.1019608
0.0078431 0.0078431 0.1019608
0.0078431 0.0078431 0.1019608
0.0078431 0.0078431 0.1019608
0.0078431 0.0078431 0.1019608
0.0078431 0.0078431 0.1019608
0.0392157 0.0039216 0.3568628
0.0470588 0.0117647 0.3529412
0.0470588 0.0117647 0.3529412
0.0470588 0.0117647 0.3529412
0.0470588 0.0117647 0.3529412
0.0470588 0.0117647 0.3529412
0.0196078 0.0117647 0.1254902
0.0196078 0.0117647 0.1254902
0.0196078 0.0117647 0.1254902
0.0078431 0.0078431 0.1019608
0.0078431 0.0078431 0.1019608
0.0078431 0.0078431 0.1019608
0.0078431 0.0078431 0.1019608
0.0078431 0.0078431 0.1019608
0.0078431 0.0078431 0.1019608
0.0078431 0.0078431 0.1019608
0.0078431 0.0078431 0.1019608
0.0078431 0.0078431 0.1019608
0.0078431 0.0078431 0.1019608
0.0078431 0.0078431 0.1019608
0.0078431 0.0078431 0.1019608
0.0078431 0.0078431 0.1019608
0.0078431 0.0078431 0.1019608
0.0078431 0.0078431 0.1019608
0.0078431 0.0078431 0.1019608
0.0078431 0.0078431 0.1019608
0.0078431 0.0078431 0.1019608
0.0078431 0.0078431 0.1019608
0.0078431 0.0078431 0.1019608
0.0078431 0.0078431 0.1019608
0.0078431 0.0078431 0.1019608
0.0078431 0.0078431 0.1019608
0.0078431 0.0078431 0.1019608
0.0470588 0.0117647 0.3529412
0.0470588 0.0117647 0.3529412
0.0470588 0.0117647 0.3529412
0.0470588 0.0117647 0.3529412
0.0470588 0.0117647 0.3529412
0.0196078 0.0117647 0.1254902
0.0196078 0.0117647 0.1254902
0.0196078 0.0117647 0.1254902
0.0196078 0.0117647 0.1254902
0.0078431 0.0078431 0.1019608
0.0078431 0.0078431 0.1019608
0.0078431 0.0078431 0.1019608
0.0078431 0.0078431 0.1019608
0.0078431 0.0078431 0.1019608
0.0078431 0.0078431 0.1019608
0.0078431 0.0078431 0.1019608
0.0078431 0.0078431 0.1019608
0.0078431 0.0078431 0.1019608
0.0078431 0.0078431 0.1019608
0.0078431 0.0078431 0.1019608
0.0078431 0.0078431 0.1019608
0.0078431 0.0078431 0.1019608
0.0078431 0.0078431 0.1019608
0.0078431 0.0078431 0.1019608
0.0078431 0.0078431 0.1019608
0.0078431 0.0078431 0.1019608
0.0078431 0.0078431 0.1019608
0.0078431 0.0078431 0.1019608
0.0078431 0.0078431 0.1019608
0.0078431 0.0078431 0.1019608
0.0078431 0.0078431 0.1019608
0.0078431 0.0078431 0.1019608
0.0078431 0.0078431 0.0078431
0.0470588 0.0117647 0.3529412
0.0470588 0.0117647 0.3529412
0.0470588 0.0117647 0.3529412
0.0470588 0.0117647 0.3529412
0.0196078 0.0117647 0.1254902
0.0196078 0.0117647 0.1254902
0.0196078 0.0117647 0.1254902
0.0196078 0.0117647 0.1254902
0.0196078 0.0117647 0.1254902
0.0196078 0.0117647 0.1254902
0.0078431 0.0078431 0.1019608
0.0078431 0.0078431 0.1019608
0.0078431 0.0078431 0.1019608
0.0078431 0.0078431 0.1019608
0.0078431 0.0078431 0.1019608
0.0078431 0.0078431 0.1019608
0.0078431 0.0078431 0.1019608
0.0078431 0.0078431 0.1019608
0.0078431 0.0078431 0.1019608
0.0078431 0.0078431 0.1019608
0.0078431 0.0078431 0.1019608
0.0078431 0.0078431 0.1019608
0.0078431 0.0078431 0.1019608
0.0078431 0.0078431 0.1019608
0.0078431 0.0078431 0.1019608
0.0078431 0.0078431 0.1019608
0.0078431 0.0078431 0.1019608
0.0078431 0.0078431 0.1019608
0.0078431 0.0078431 0.1019608
0.0078431 0.0078431 0.1019608
0.0078431 0.0078431 0.0078431
0.0078431 0.0078431 0.0078431
0.0078431 0.0078431 0.0078431
0.0470588 0.0117647 0.3529412
0.0470588 0.0117647 0.3529412
0.0470588 0.0117647 0.3529412
0.0470588 0.0117647 0.3529412
0.0196078 0.0117647 0.1254902
0.0196078 0.0117647 0.1254902
0.0196078 0.0117647 0.1254902
0.0196078 0.0117647 0.1254902
0.0196078 0.0117647 0.1254902
0.0196078 0.0117647 0.1254902
0.0078431 0.0078431 0.1019608
0.0078431 0.0078431 0.1019608
0.0078431 0.0078431 0.1019608
0.0078431 0.0078431 0.1019608
0.0078431 0.0078431 0.1019608
0.0078431 0.0078431 0.1019608
0.0078431 0.0078431 0.1019608
0.0078431 0.0078431 0.1019608
0.0078431 0.0078431 0.1019608
0.0078431 0.0078431 0.1019608
0.0078431 0.0078431 0.1019608
0.0078431 0.0078431 0.1019608
0.0078431 0.0078431 0.1019608
0.0078431 0.0078431 0.1019608
0.0078431 0.0078431 0.1019608
0.0078431 0.0078431 0.1019608
0.0078431 0.0078431 0.1019608
0.0078431 0.0078431 0.1019608
0.0078431 0.0078431 0.0078431
0.0078431 0.0078431 0.0078431
0.0078431 0.0078431 0.0078431
0.0078431 0.0078431 0.0078431
0.0078431 0.0078431 0.0078431
0.0470588 0.0117647 0.3529412
0.0470588 0.0117647 0.3529412
0.0470588 0.0117647 0.3529412
0.0196078 0.0117647 0.1254902
0.0196078 0.0117647 0.1254902
0.0196078 0.0117647 0.1254902
0.0196078 0.0117647 0.1254902
0.0196078 0.0117647 0.1254902
0.0196078 0.0117647 0.1254902
0.0196078 0.0117647 0.1254902
0.0078431 0.0078431 0.1019608
0.0078431 0.0078431 0.1019608
0.0078431 0.0078431 0.1019608
0.0078431 0.0078431 0.1019608
0.0078431 0.0078431 0.1019608
0.0078431 0.0078431 0.1019608
0.0078431 0.0078431 0.1019608
0.0078431 0.0078431 0.1019608
0.0078431 0.0078431 0.1019608
0.0078431 0.0078431 0.1019608
0.0078431 0.0078431 0.1019608
0.0078431 0.0078431 0.1019608
0.0078431 0.0078431 0.1019608
0.0078431 0.0078431 0.1019608
0.0078431 0.0078431 0.1019608
0.0078431 0.0078431 0.1019608
0.0078431 0.0078431 0.0078431
0.0078431 0.0078431 0.0078431
0.0078431 0.0078431 0.0078431
0.0078431 0.0078431 0.0078431
0.0078431 0.0078431 0.0078431
0.0078431 0.0078431 0.0078431
0.0078431 0.0078431 0.0078431
0.0470588 0.0117647 0.3529412
0.0470588 0.0117647 0.3529412
0.0196078 0.0117647 0.1254902
0.0196078 0.0117647 0.1254902
0.0196078 0.0117647 0.1254902
0.0196078 0.0117647 0.1254902
0.0196078 0.0117647 0.1254902
0.0196078 0.0117647 0.1254902
0.0196078 0.0117647 0.1254902
0.0196078 0.0117647 0.1254902
0.0078431 0.0078431 0.1019608
0.0078431 0.0078431 0.1019608
0.0078431 0.0078431 0.1019608
0.0078431 0.0078431 0.1019608
0.0078431 0.0078431 0.1019608
0.0078431 0.0078431 0.1019608
0.0078431 0.0078431 0.1019608
0.0078431 0.0078431 0.1019608
0.0078431 0.0078431 0.1019608
0.0078431 0.0078431 0.1019608
0.0078431 0.0078431 0.1019608
0.0078431 0.0078431 0.1019608
0.0078431 0.0078431 0.1019608
0.0078431 0.0078431 0.1019608
0.0078431 0.0078431 0.0078431
0.0078431 0.0078431 0.0078431
0.0078431 0.0078431 0.0078431
0.0078431 0.0078431 0.0078431
0.0078431 0.0078431 0.0078431
0.0078431 0.0078431 0.0078431
0.0078431 0.0078431 0.0078431
0.0078431 0.0078431 0.0078431
0.0078431 0.0078431 0.0078431
0.0470588 0.0117647 0.3529412
0.0196078 0.0117647 0.1254902
0.0196078 0.0117647 0.1254902
0.0196078 0.0117647 0.1254902
0.0196078 0.0117647 0.1254902
0.0196078 0.0117647 0.1254902
0.0196078 0.0117647 0.1254902
0.0196078 0.0117647 0.1254902
0.0196078 0.0117647 0.1254902
0.0196078 0.0117647 0.1254902
0.0078431 0.0078431 0.1019608
0.0078431 0.0078431 0.1019608
0.0078431 0.0078431 0.1019608
0.0078431 0.0078431 0.1019608
0.0078431 0.0078431 0.1019608
0.0078431 0.0078431 0.1019608
0.0078431 0.0078431 0.1019608
0.0078431 0.0078431 0.1019608
0.0078431 0.0078431 0.1019608
0.0078431 0.0078431 0.1019608
0.0078431 0.0078431 0.1019608
0.0078431 0.0078431 0.1019608
0.0078431 0.0078431 0.0078431
0.0078431 0.0078431 0.0078431
0.0078431 0.0078431 0.0078431
0.0078431 0.0078431 0.0078431
0.0078431 0.0078431 0.0078431
0.0078431 0.0078431 0.0078431
0.0078431 0.0078431 0.0078431
0.0078431 0.0078431 0.0078431
0.0078431 0.0078431 0.0078431
0.0078431 0.0078431 0.0078431
0.0078431 0.0078431 0.0078431
0.0470588 0.0117647 0.3529412
0.0196078 0.0117647 0.1254902
0.0196078 0.0117647 0.1254902
0.0196078 0.0117647 0.1254902
0.0196078 0.0117647 0.1254902
0.0196078 0.0117647 0.1254902
