lut/Frontier_like.cube
TITLE "FrontierLUT"
LUT_3D_SIZE 5
0.9921569 0.9921569 0.9921569
0.0000000 0.3215686 0.5882353
0.0039216 0.2666667 0.4901961
0.0039216 0.0117647 0.1686275
0.0039216 0.0117647 0.1686275
0.1019608 0.0823529 0.4156863
0.0549020 0.0313726 0.4745098
0.0039216 0.0117647 0.1686275
0.0078431 0.0078431 0.1019608
0.0078431 0.0078431 0.1019608
0.0392157 0.0039216 0.3568628
0.0196078 0.0117647 0.1254902
0.0078431 0.0078431 0.1019608
0.0078431 0.0078431 0.1019608
0.0078431 0.0078431 0.1019608
0.0470588 0.0117647 0.3529412
0.0196078 0.0117647 0.1254902
0.0078431 0.0078431 0.1019608
0.0078431 0.0078431 0.0078431
0.0078431 0.0078431 0.0078431
0.0196078 0.0117647 0.1254902
0.0078431 0.0078431 0.0078431
0.0078431 0.0078431 0.0078431
0.0078431 0.0078431 0.0078431
0.0078431 0.0078431 0.0078431
0.6235294 0.5294118 0.3019608
0.1960784 0.2313726 0.2196078
0.0039216 0.0666667 0.1803922
0.0078431 0.0078431 0.1019608
0.0078431 0.0078431 0.1019608
0.1921569 0.1254902 0.0901961
0.0117647 0.0156863 0.0941176
0.0078431 0.0078431 0.1019608
0.0078431 0.0078431 0.0078431
0.0078431 0.0078431 0.0078431
0.0392157 0.0235294 0.0196078
0.0078431 0.0078431 0.0078431
0.0078431 0.0078431 0.0078431
0.0078431 0.0078431 0.0078431
0.0078431 0.0078431 0.0078431
0.0274510 0.0470588 0.0431373
0.0078431 0.0078431 0.0078431
0.0078431 0.0078431 0.0078431
0.0078431 0.0078431 0.0078431
0.0078431 0.0078431 0.0078431
0.0078431 0.0078431 0.0078431
0.0078431 0.0078431 0.0078431
0.0078431 0.0078431 0.0078431
0.0078431 0.0078431 0.0078431
0.0078431 0.0078431 0.0078431
0.2117647 0.1607843 0.0117647
0.0313726 0.0235294 0.0196078
0.0156863 0.0117647 0.0196078
0.0078431 0.0078431 0.0078431
0.0078431 0.0078431 0.0078431
0.0549020 0.0470588 0.0078431
0.0196078 0.0117647 0.0117647
0.0078431 0.0078431 0.0078431
0.0078431 0.0078431 0.0078431
0.0078431 0.0078431 0.0078431
0.0117647 0.0117647 0.0117647
0.0078431 0.0078431 0.0078431
0.0078431 0.0078431 0.0078431
0.0078431 0.0078431 0.0078431
0.0078431 0.0078431 0.0078431
0.0078431 0.0078431 0.0078431
0.0078431 0.0078431 0.0078431
0.0078431 0.0078431 0.0078431
0.0078431 0.0078431 0.0078431
0.0078431 0.0078431 0.0078431
0.0078431 0.0078431 0.0078431
0.0078431 0.0078431 0.0078431
0.0078431 0.0078431 0.0078431
0.0078431 0.0078431 0.0078431
0.0078431 0.0078431 0.0078431
0.0549020 0.0470588 0.0078431
0.0117647 0.0117647 0.0117647
0.0039216 0.0117647 0.0156863
0.0078431 0.0078431 0.0078431
0.0078431 0.0078431 0.0078431
0.0117647 0.0117647 0.0117647
0.0039216 0.0117647 0.0156863
0.0078431 0.0078431 0.0078431
0.0078431 0.0078431 0.0078431
0.0078431 0.0078431 0.0078431
0.0078431 0.0078431 0.0078431
0.0078431 0.0078431 0.0078431
0.0078431 0.0078431 0.0078431
0.0078431 0.0078431 0.0078431
0.0078431 0.0078431 0.0078431
0.0078431 0.0078431 0.0078431
0.0078431 0.0078431 0.0078431
0.0078431 0.0078431 0.0078431
0.0078431 0.0078431 0.0078431
0.0078431 0.0078431 0.0078431
0.0078431 0.0078431 0.0078431
0.0078431 0.0078431 0.0078431
0.0078431 0.0078431 0.0078431
0.0078431 0.0078431 0.0078431
0.0078431 0.0078431 0.0078431
0.0117647 0.0117647 0.0117647
0.0039216 0.0117647 0.0156863
0.0078431 0.0078431 0.0078431
0.0078431 0.0078431 0.0078431
0.0078431 0.0078431 0.0078431
0.0039216 0.0117647 0.0156863
0.0039216 0.0117647 0.0156863
0.0078431 0.0078431 0.0078431
0.0078431 0.0078431 0.0078431
0.0078431 0.0078431 0.0078431
0.0078431 0.0078431 0.0078431
0.0078431 0.0078431 0.0078431
0.0078431 0.0078431 0.0078431
0.0078431 0.0078431 0.0078431
0.0078431 0.0078431 0.0078431
0.0078431 0.0078431 0.0078431
0.0078431 0.0078431 0.0078431
0.0078431 0.0078431 0.0078431
0.0078431 0.0078431 0.0078431
0.0078431 0.0078431 0.0078431
0.0078431 0.0078431 0.0078431
0.0078431 0.0078431 0.0078431
0.0078431 0.0078431 0.0078431
0.0078431 0.0078431 0.0078431
0.0078431 0.0078431 0.0078431
